GWA/img/icons/icon-star.svg

<svg width="20" height="19" viewBox="0 0 20 19" fill="none" xmlns="http://www.w3.org/2000/svg">
<path d="M8.39614 1.02277C8.80443 -0.233819 10.5822 -0.233818 10.9905 1.02277L12.2962 5.04129C12.4788 5.60325 13.0024 5.98373 13.5933 5.98373H17.8186C19.1399 5.98373 19.6892 7.67447 18.6203 8.45108L15.202 10.9347C14.7239 11.282 14.5239 11.8976 14.7065 12.4596L16.0122 16.4781C16.4205 17.7347 14.9823 18.7796 13.9133 18.003L10.495 15.5194C10.017 15.1721 9.36964 15.1721 8.89161 15.5194L5.47325 18.003C4.40433 18.7796 2.96611 17.7347 3.3744 16.4781L4.6801 12.4596C4.86269 11.8976 4.66266 11.282 4.18462 10.9347L0.766269 8.45108C-0.302651 7.67447 0.246702 5.98373 1.56796 5.98373H5.79328C6.38416 5.98373 6.90785 5.60325 7.09044 5.04129L8.39614 1.02277Z" fill="#FBBC05"/>
</svg>

<svg width="20" height="19" fill="none" xmlns="http://www.w3.org/2000/svg"><path d="M8.396 1.023c.408-1.257 2.186-1.257 2.595 0l1.305 4.018c.183.562.706.943 1.297.943h4.226c1.32 0 1.87 1.69.801 2.467l-3.418 2.484a1.364 1.364 0 00-.495 1.525l1.305 4.018c.409 1.257-1.03 2.302-2.099 1.525l-3.418-2.484a1.364 1.364 0 00-1.603 0l-3.419 2.484c-1.069.777-2.507-.268-2.099-1.525L4.68 12.46a1.364 1.364 0 00-.495-1.525L.766 8.45c-1.069-.777-.52-2.467.802-2.467h4.225c.591 0 1.115-.38 1.297-.943l1.306-4.018z" fill="#FBBC05"/></svg>
